X: 842
T: O'Dwyer's Hornpipe
R: hornpipe
%S: s:8 b:32(4+4+4+4+4+4+4+4)
B: Francis O'Neill: "The Dance Music of Ireland" (1907) #842
Z: Transcribed by Frank Nordberg - http://www.musicaviva.com
F: http://www.musicaviva.com/abc/tunes/ireland/oneill-1001/0842/oneill-1001-0842-1.abc
M: C|
L: 1/8
K: G
"^A"|: (dc) | (B<d)GG G2(AG) | (F<A)D>D D2(dc) |\
[1,3 (B<d)G>G G2(Bd) | (e<g)(f<a) ge :|\
[2,4 BdBG (3(ABc) AF | G2G>G G2 "^B":: (ga) | b2{a}bg afdf |
| gabg agfd |\
[1,3 egfa gbag | f2d>d d2 :|\
[2,4 (3(efg) fa gedc | B2G>G G2 "^C":: (dc) \
| BcAB G2AG | FGEF D2dc |
|[1,3 BcAB G2(Bd) | egfa ge :|\
[2,4 BdBG (3(ABc) AF | G2G>G G2 "^D":: (Bc) \
| d>B (3.B.B.B G>B (3.B.B.B | d>B (3.B.B.B G>B (3.B.B.B |
| c>A (3.A.A.A F>A (3.A.A.A | c>A (3.A.A.A FA || dc \
| BGBd eceg | fdfa gfga | bgfa gedc | B2G>G G2 :|
